X: 134
T:The Hundred Pipers
% Nottingham Music Database
S:Trad, arr Phil Rowe
M:6/8
K:A
A/2B/2|"A"c2E EFE|"D"F2A A2f|"A"e2c cBA|"Bm"c2B "E7"BAB|
"A"c2E EFE|"D"F2A A2f|"A"e2c "E7"BAB|"A"A3 -A2::
c/2d/2|"A"e2e ece|"D"f2a a2f|"A"e2c cBA|"Bm"c2B "E7"Bcd|
"A"e2e efg|"D"a2a agf|"A"e2c "E"BAB|"A"A3 -A2:|<end>
<start>
